X:1
T:James Gibb editions
T:Psalm 18 (Becker) - Schütz
%%score [ ( 1 2 ) ( 3 4 ) ]
L:1/8
Q:1/4=108
M:2/2
K:G
V:1 treble nm="Soprano Alto"
V:2 treble 
V:3 bass nm="Tenor Bass"
V:4 bass 
V:1
"^Cornelius Becker\n(1561-1604)""^Psalm 18, SWV 114""^Heinrich Schütz\n(1585-1672)" B4 c4 | %1
w: ~Ich lieb|
w: mein fes-|
 d2 e4 d2 | c2 B2 A4 | A4 d4 | B2 c4 B2 | A4 G4 :|[M:2/2] B4 A4 | G2 A2 B4 | d4 B4 | c2 B2 A4 | %10
w: dich, Herr, von|Her- zen sehr,|mein star-|ker Fels in|Nö- ten,|ich trau|fest auf dich,|mein Schild,|du wirst nicht|
w: te Burg, o|Gott, mein Herr,|mein Hort,|mich zu er-|ret- ten,|||||
 B4 G4 | =F2 D2 E4 | G4 A2 c2 | c2 B2 c4 | e4 d4 | c2 B4 G2 | F4 E8 |] %17
w: fort- ge-|hen von mir,|ich schrei und|ruf zu dir,|hilf mir|von mei- nen|Fein- den.|
w: |||||||
V:2
 E4 E4 | F2 G4 G2 | E2 E2 E4 | D4 D4 | E2 E4 G2 | F4 G4 :|[M:2/2] G4 F4 | E2 E2 ^D4 | F4 E4 | %9
 E2 G2 F4 | G4 E4 | D2 A,2 B,4 | E4 =F2 E2 | G2 G2 G4 | G4 G4 | E2 E4 E2 | (E2 ^D2) E8 |] %17
V:3
 ^G,4 A,4 | A,2 C4 B,2 | A,2 ^G,2 A,4 | F,4 B,4 | G,2 A,4 D2 | D4 D4 :|[M:2/2] D4 D4 | %7
 B,2 E,2 F,4 | B,4 G,4 | G,2 D2 D4 | D4 C4 | A,2 A,2 ^G,4 | %12
"^2. Des Todes Band umfingen mich mit Schrecken viel und Grausen,\nder Höllen Flut ergossen sich üb'r mich mit großem Brausen,\ndie Strick Belial mich umfingen all, in äußerster Not\nrief ich zu Gott, da halfst du mir aus Nöten.\n\n4. Du fuhrst daher auf Cherubim, tätst auf Windflügeln schweben,\ndein Zelt war finster um und um mit Wolken schwarz umgeben,\nGlanz ging vor dir her, trennt die Wolken schwer, mit Hagel und Feu'r\nSchlugst du drein ungeheuer und ließt dein Donner brausen.\n\n10. Ohn Wandel Gottes Wege sind dein Wort ist laut'r und reine,\nwer Gott vertraut, Hülf bei ihm find't, er ist der Herr alleine,\ner ist unser Schild, kein Macht ohn' ihn gilt, denn wo ist ein Gott,\nder helfen könnt aus Not, gleich wie du, Herr Zebaoth?\n\n12. Gott selber ist mein Schild und Heil, sein Rechte tut mich stärken,\nsein Züchtigung kommt mir zuteil, sein Lieb dabei ich merke.\nWenns zum Treffen geht, zur Seit er mir steht, und räumt mir den Plan\nDaß ich frei fechten kann und die Feind überwinde." C4 C2 C2 | %13
 D2 D2 E4 | C4 B,4 | A,2 G,4 B,2 | B,4 B,8 |] %17
V:4
 E,4 A,,4 | D,2 C,4 G,,2 | A,,2 E,2 A,,4 | D,4 B,,4 | E,2 A,,4 B,,2 | D,4 G,,4 :|[M:2/2] G,4 D,4 | %7
 E,2 C,2 B,,4 | B,,4 E,4 | C,2 G,,2 D,4 | G,4 C,4 | D,2 =F,2 E,4 | C,4 =F,2 A,2 | G,2 G,2 C,4 | %14
 C,4 G,,4 | A,,2 E,4 E,2 | B,,4 E,8 |] %17

